X: 97
T:Scottiche Valse
M:4/4
L:1/4
O:France
A:Massif Central
K:C
G A/2F/2 G2|A B/2c/2 BA|G A/2F/2 G2|A B/2c/2 A2:|
M:3/4
ABc|ded|cBA|G2F|DGG|FGA|BAF|G3:||
W:
W: From "Falaleiro" http://home.t-online.de/home/pheld/homepage.htm

